**kern	**kern	**dynam
*part1	*part1	*part1
*staff2	*staff1	*
*I"Piano	*	*
*clefF4	*clefG2	*
*k[f#c#g#d#]	*k[f#c#g#d#]	*
=1	=1	=1
4F#	4a 4b 4dd# 4ff# 4aa 4bb	>
8B	8a 8b 8dd# 8ff# 8aa 8bb	.
4B	4a 4b 4dd# 4ff# 4aa 4bb	.
8f#	8a 8b 8dd# 8ff# 8aa 8bb	.
=	=	=
4f#	4a 4b 4dd# 4ff# 4aa 4bb	]
8r	8a 8b 8dd# 8ff# 8aa 8bb	.
4r	4a 4b 4dd# 4ff# 4aa 4bb	.
8E 8G# 8B	8e 8g# 8b	p
=	=	=
4.E 4.A 4.c#	4.e 4.a 4.cc#	.
4.E 4.F# 4.A 4.B 4.d#	4.f# 4.a 4.b 4.dd#	.
=	=	=
[4.E [4.G# [4.B [4.e	[4.g# [4.b [4.ee	.
4E] 4G#] 4B] 4e]	4g#] 4b] 4ee]	.
8E 8G# 8B	8e 8g# 8b	.
=	=	=
[4.E [4.A [4.c#	2.e 2.a 2.cc#	.
4E] 4A] 4c#]	.	.
8AA	.	.
=	=	=
[4.E [4.G# [4.B	2.e 2.g# 2.b	.
4E] 4G#] 4B]	.	.
8EE	.	.
=	=	=
[4.C# [4.E [4.A	2.c# 2.e 2.a	.
4C#] 4E] 4A]	.	.
8FF#	.	.
=	=	=
[4.D# [4.F# [4.B	2.d# 2.f# 2.b	.
4D#] 4F#] 4B]	.	.
8BBB	.	.
=	=	=
*-	*-	*-
!!!system-decoration: {(s1,s2)}
